64x64/apps/rogue-legacy.svg

<svg height="64" width="64" xmlns="http://www.w3.org/2000/svg"><path d="m42 19c2-6 2-7 0-10s-3-4-10-4c-8 0-22 20-22 20l8-3s-3 11-14 11c0 2 6 3 9 3 9 0 25.458-6.375 29-17z" opacity=".2"/><path d="m42 18c2-6 2-7 0-10s-3-4-10-4c-8 0-22 20-22 20l8-3s-3 11-14 11c0 2 6 3 9 3 9 0 25.458-6.375 29-17z" fill="#e91b3a"/><path d="m32 4c-8 0-22 20-22 20l1.004-.377c3.24-4.4 14.224-18.623 20.996-18.623 7 0 8 1 10 4 .88 1.32 1.35 2.266 1.455 3.408.135-1.654-.335-2.728-1.455-4.408-2-3-3-4-10-4zm-14 18-.42.158c-1.089 2.772-4.71 9.842-13.58 9.842 0 .36.202.687.54.982 10.553-.355 13.46-10.982 13.46-10.982z" fill="#f4f4f7" opacity=".2"/><path d="m41 16c-20 0-23 14-23 14v22c0 9 12 9 12 9h10v-14h-11v-11h11l3 6 3-6h11v11h-11v14s14 0 14-9v-22s-3-14-19-14z" opacity=".2"/><g fill="#f4f4f7"><path d="m41 15c-20 0-23 14-23 14v22c0 9 12 9 12 9h10v-14h-11v-11h11l3 6 3-6h11v11h-11v14s14 0 14-9v-22s-3-14-19-14z"/><path d="m41 15c-20 0-23 14-23 14v1s3-14 23-14c16 0 19 14 19 14v-1s-3-14-19-14zm-12 31v1h11v-1zm17 0v1h11v-1z" opacity=".2"/></g></svg>

<svg xmlns="http://www.w3.org/2000/svg" height="64" width="64"><path d="M42 19c2-6 2-7 0-10s-3-4-10-4c-8 0-22 20-22 20l8-3S15 33 4 33c0 2 6 3 9 3 9 0 25.458-6.375 29-17z" style="opacity:.2"/><path d="M42 18c2-6 2-7 0-10s-3-4-10-4c-8 0-22 20-22 20l8-3S15 32 4 32c0 2 6 3 9 3 9 0 25.458-6.375 29-17z" style="fill:#e91b3a"/><path style="opacity:.2;fill:#f4f4f7" d="M32 4c-8 0-22 20-22 20l1.004-.377C14.244 19.223 25.228 5 32 5c7 0 8 1 10 4 .88 1.32 1.35 2.266 1.455 3.408C43.59 10.754 43.12 9.68 42 8c-2-3-3-4-10-4zM18 22l-.42.158C16.491 24.93 12.87 32 4 32c0 .36.202.687.54.982C15.093 32.627 18 22 18 22z"/><path style="opacity:.2" d="M41 16c-20 0-23 14-23 14v22c0 9 12 9 12 9h10V47H29V36h11l3 6 3-6h11v11H46v14s14 0 14-9V30s-3-14-19-14z"/><path style="fill:#f4f4f7" d="M41 15c-20 0-23 14-23 14v22c0 9 12 9 12 9h10V46H29V35h11l3 6 3-6h11v11H46v14s14 0 14-9V29s-3-14-19-14z"/><path style="opacity:.2;fill:#f4f4f7" d="M41 15c-20 0-23 14-23 14v1s3-14 23-14c16 0 19 14 19 14v-1s-3-14-19-14zM29 46v1h11v-1H29zm17 0v1h11v-1H46z"/></svg>
